!! 00000] TT[00
!! NN
!!!OTL: Yizhi niaozai
!!!ARE: Asia, China,ÿTaiwan
!! Ethnic Group: Han
!! IV, 629
!!!SCT: C0448
!!!YEM: Copyright 1995, estate of Helmut Schaffrath.
**kern
*ICvox
*Ivox
*M4/4
*k[f#c#g#]
*A:
{4b
4cc#
8b
16b
16cc#
8b
8a
=1
8b
8r
8f#
8f#
8b
8r
4r}
=2
{4f#
4b
8f#
8a
8f#
8e
=3
4B
8e
8f#
8e
8r
4r}
=4
{4a
4b
8a
16a
16b
8a
8f#
=5
4a
8e
8e
8a
8r
4r}
=6
{4b
4b
8f#
8a
8f#
8e
=7
4B
8e
8f#
4e
8e
8r}
==
!!!AGN: Xiaodiao, Erge
!! Mehrere Glissandi.
!!!ONB: ESAC (Essen Associative Code) Database: CHINA
!!!AMT: simple quadruple
!!!AIN: vox
!!!EED: Helmut Schaffrath
!!!EEV: 1.0
*-
